svg/u265f.svg

<svg viewBox="0 0 128 128" xmlns="http://www.w3.org/2000/svg">
  <path d="M79.05,13.39L49.63,32.88c0,0,1,1.42,1.68,2.07c1.42,1.36,2.34,1.81,2.34,1.81l-0.58,2l-7.33,4.25 c0,0-0.26,3.36,3.48,5.3c3.1,1.61,6.19,1.62,6.19,1.62v4.83c0,0,3.08,6,9.34,6s9.25-6.83,9.25-6.83l0.08-4.17 c0,0,2.82-0.28,5.51-1.85c2.04-1.2,2.76-3.16,2.78-4.83c0.02-1.42-0.11-1.7-0.11-1.7l-8.52-4.45c0,0,3.79-2.3,5.83-7.5 C83.41,19.68,79.05,13.39,79.05,13.39z" fill="#474C50"/>
  <path d="M63.32,76.52l-21.21,5.05c0,0-0.56,0.78-0.55,1.62c0.02,1.41,0.62,1.74,0.62,1.74L33.71,95.2 c0,0-0.99,2.03-0.94,4.6c0.05,2.46,1.07,3.97,1.21,3.9l-2.75,3.67l-1.75,0.75c0,0-0.95,1.54-0.83,3.42c0.15,2.32,1.65,4.79,7.5,7.5 c6.05,2.81,12.59,5.33,27.76,5.33s26.67-3,31.42-6.33c4.75-3.33,5.13-6.23,5.21-7.48c0.07-1.09-0.21-2.03-0.55-2.69 c-0.04-0.07-0.13-0.21-0.13-0.21l-3.75-4.05c0,0,0.9-2.23,0.79-4.6c-0.14-2.99-1.65-5.15-1.65-5.15l-8.84-7.67l0.08-2 c0,0,0.15-0.64-0.14-1.71c-0.25-0.92-0.45-1.43-0.66-1.75c-0.62-0.95-1.38-0.85-1.38-0.85L63.32,76.52z" fill="#474C50"/>
  <path d="M49.6,32.88c0,0-4.69-5.79-2.69-14.96S57.15,2.84,66.49,4.17s13.09,10.17,13.09,10.17 S79.31,25.36,69.22,30.7S49.6,32.88,49.6,32.88z" fill="#5E6367"/>
  <path d="M62.66,7.09c2.21,1.26,1.01,2.67-2.33,4.83c-3.1,2.01-6.83,7.92-7.84,9.42s-1.67,1.67-2.17,1.33 s-2.08-1.17-0.67-5.92s5.17-7.75,7-8.84C58.49,6.84,60.91,6.09,62.66,7.09z" fill="#FFFFFE"/>
  <path d="M53.65,36.76c0,0,4.71,3.14,9.79,3.2c7.17,0.07,10.3-3.03,10.3-3.03s3.39-0.35,5.81,0.91 c2.12,1.1,2.71,3.56,2.71,3.56s-2.24,5.83-18.56,5.39c-16.33-0.44-17.96-3.77-17.96-3.77s-0.43-3.43,2.48-5.11 C50.66,36.49,53.65,36.76,53.65,36.76z" fill="#5E6367"/>
  <path d="M50.63,38.49c-1.56-0.15-3.95,0.81-3.66,2.93c0.29,2.12,5.13,3.08,7.47,3.22s6.08,0.44,6-1.76 c-0.07-2.2-5.71-1.1-7.91-2.27S52.9,38.71,50.63,38.49z" fill="#AEAEAF"/>
  <path d="M55.4,54.77c0,0,2.99,1.3,9.21,1.3c6.22,0,9.38-2.13,9.38-2.13s-0.01,7.04,2.92,14.14 c2.93,7.1,5.05,10.54,5.05,10.54s1.91-0.13,2.64,0.46c0.73,0.59,1.44,2.38,1.44,2.38c-0.24,0.33-5.45,5.16-21.1,4.82 c-16.69-0.36-22.83-4.72-22.83-4.72s0.98-1.63,2.1-2c1.35-0.45,2.22-0.33,2.22-0.33s5.01-6.03,7.06-11.96 C55.53,61.34,55.4,54.77,55.4,54.77z" fill="#5E6367"/>
  <path d="M64.25,81.69c6.15,0,11.5-1.24,13.77-1.9s3.99-1.77,5.75-1.18c0.99,0.33,1.37,1.08,1.37,1.08 s-6.54,5.5-20.96,4.94c-15.37-0.59-21.25-4.11-21.25-4.11s1-1.43,3.25-1.29c0.6,0.04,1.16,0.21,4.6,1.01S58.24,81.69,64.25,81.69z" fill="#B0B0AF"/>
  <path d="M42.18,84.92c0,0,10.13,4.01,22.07,4.17c15.97,0.21,22.25-4.9,22.25-4.9s3.75,3.44,5.28,5.05 s3.47,4.62,3.47,4.62s-6.69,11.05-31.14,10.83c-24.46-0.22-30.4-9.49-30.4-9.49s1.29-3.38,3.96-6.18 C39.31,87.29,42.18,84.92,42.18,84.92z" fill="#5E6367"/>
  <path d="M41.99,89.45c-1.82-0.49-5.42,3.15-4.98,5.42c0.22,1.16,0.87,2.45,4.39,3.73 c3.22,1.17,8.2,1.11,8.2-0.81c0-2.49-4.32-2.26-5.42-4.47C43.31,91.58,43.89,89.97,41.99,89.45z" fill="#B0B0AF"/>
  <path d="M33.98,103.69c0,0-1.44,0.98-2.56,2.08c-1.41,1.39-1.94,2.34-1.94,2.34s3.23,11.62,34.27,11.87 c30.39,0.25,36.11-12.33,36.11-12.33s-0.99-1.43-2.03-2.47c-1.04-1.04-1.73-1.57-1.73-1.57s-8.81,9.95-32.56,9.69 C40.9,113.07,33.98,103.69,33.98,103.69z" fill="#5E6367"/>
  <path d="M32.42,106.89c-0.83,0.93-0.8,2.86,1.65,4.47c2.62,1.72,6.84,4.17,12.89,5.3 c6.16,1.15,12.58,0.8,12.18-1.26c-0.27-1.41-5.61,0.17-15.08-3.58c-5.56-2.2-7.28-3.41-8.41-4.21 C34.92,107.08,33.62,105.55,32.42,106.89z" fill="#B0B0AF"/>
  <path d="M39.59,96.28c1.93,0,1.93-3,0-3C37.66,93.28,37.66,96.28,39.59,96.28L39.59,96.28z" fill="#B0B0AF"/>
</svg>

<svg viewBox="0 0 128 128" xmlns="http://www.w3.org/2000/svg">
  <defs/>
  <path d="M79.05,13.39 L49.63,32.88 C49.63,32.88 50.63,34.3 51.31,34.95 C52.73,36.31 53.65,36.76 53.65,36.76 L53.07,38.76 L45.74,43.01 C45.74,43.01 45.48,46.37 49.22,48.31 C52.32,49.92 55.41,49.93 55.41,49.93 L55.41,54.76 C55.41,54.76 58.49,60.76 64.75,60.76 C71.01,60.76 74,53.93 74,53.93 L74.08,49.76 C74.08,49.76 76.9,49.48 79.59,47.91 C81.63,46.71 82.35,44.75 82.37,43.08 C82.39,41.66 82.26,41.38 82.26,41.38 L73.74,36.93 C73.74,36.93 77.53,34.63 79.57,29.43 C83.41,19.68 79.05,13.39 79.05,13.39 Z" fill="#474C50"/>
  <path d="M63.32,76.52 L42.11,81.57 C42.11,81.57 41.55,82.35 41.56,83.19 C41.58,84.6 42.18,84.93 42.18,84.93 L33.71,95.2 C33.71,95.2 32.72,97.23 32.77,99.8 C32.82,102.26 33.84,103.77 33.98,103.7 L31.23,107.37 L29.48,108.12 C29.48,108.12 28.53,109.66 28.65,111.54 C28.8,113.86 30.3,116.33 36.15,119.04 C42.2,121.85 48.74,124.37 63.91,124.37 C79.08,124.37 90.58,121.37 95.33,118.04 C100.08,114.71 100.46,111.81 100.54,110.56 C100.61,109.47 100.33,108.53 99.99,107.87 C99.95,107.8 99.86,107.66 99.86,107.66 L96.11,103.61 C96.11,103.61 97.01,101.38 96.9,99.01 C96.76,96.02 95.25,93.86 95.25,93.86 L86.41,86.19 L86.49,84.19 C86.49,84.19 86.64,83.55 86.35,82.48 C86.1,81.56 85.9,81.05 85.69,80.73 C85.07,79.78 84.31,79.88 84.31,79.88 L63.32,76.52 Z" fill="#474C50"/>
  <path d="M49.6,32.88 C49.6,32.88 44.91,27.09 46.91,17.92 C48.91,8.75 57.15,2.84 66.49,4.17 C75.83,5.5 79.58,14.34 79.58,14.34 C79.58,14.34 79.31,25.36 69.22,30.7 C59.13,36.04 49.6,32.88 49.6,32.88 Z" fill="#5E6367"/>
  <path d="M62.66,7.09 C64.87,8.35 63.67,9.76 60.33,11.92 C57.23,13.93 53.5,19.84 52.49,21.34 C51.48,22.84 50.82,23.01 50.32,22.67 C49.82,22.33 48.24,21.5 49.65,16.75 C51.06,12 54.82,9 56.65,7.91 C58.49,6.84 60.91,6.09 62.66,7.09 Z" fill="#FFFFFE"/>
  <path d="M53.65,36.76 C53.65,36.76 58.36,39.9 63.44,39.96 C70.61,40.03 73.74,36.93 73.74,36.93 C73.74,36.93 77.13,36.58 79.55,37.84 C81.67,38.94 82.26,41.4 82.26,41.4 C82.26,41.4 80.02,47.23 63.7,46.79 C47.37,46.35 45.74,43.02 45.74,43.02 C45.74,43.02 45.31,39.59 48.22,37.91 C50.66,36.49 53.65,36.76 53.65,36.76 Z" fill="#5E6367"/>
  <path d="M50.63,38.49 C49.07,38.34 46.68,39.3 46.97,41.42 C47.26,43.54 52.1,44.5 54.44,44.64 C56.78,44.78 60.52,45.08 60.44,42.88 C60.37,40.68 54.73,41.78 52.53,40.61 C50.33,39.44 52.9,38.71 50.63,38.49 Z" fill="#AEAEAF"/>
  <path d="M55.4,54.77 C55.4,54.77 58.39,56.07 64.61,56.07 C70.83,56.07 73.99,53.94 73.99,53.94 C73.99,53.94 73.98,60.98 76.91,68.08 C79.84,75.18 81.96,78.62 81.96,78.62 C81.96,78.62 83.87,78.49 84.6,79.08 C85.33,79.67 86.04,81.46 86.04,81.46 C85.8,81.79 80.59,86.62 64.94,86.28 C48.25,85.92 42.11,81.56 42.11,81.56 C42.11,81.56 43.09,79.93 44.21,79.56 C45.56,79.11 46.43,79.23 46.43,79.23 C46.43,79.23 51.44,73.2 53.49,67.27 C55.53,61.34 55.4,54.77 55.4,54.77 Z" fill="#5E6367"/>
  <path d="M64.25,81.69 C70.4,81.69 75.75,80.45 78.02,79.79 C80.29,79.13 82.01,78.02 83.77,78.61 C84.76,78.94 85.14,79.69 85.14,79.69 C85.14,79.69 78.6,85.19 64.18,84.63 C48.81,84.04 42.93,80.52 42.93,80.52 C42.93,80.52 43.93,79.09 46.18,79.23 C46.78,79.27 47.34,79.44 50.78,80.24 C54.22,81.04 58.24,81.69 64.25,81.69 Z" fill="#B0B0AF"/>
  <path d="M42.18,84.92 C42.18,84.92 52.31,88.93 64.25,89.09 C80.22,89.3 86.5,84.19 86.5,84.19 C86.5,84.19 90.25,87.63 91.78,89.24 C93.31,90.85 95.25,93.86 95.25,93.86 C95.25,93.86 88.56,104.91 64.11,104.69 C39.65,104.47 33.71,95.2 33.71,95.2 C33.71,95.2 35,91.82 37.67,89.02 C39.31,87.29 42.18,84.92 42.18,84.92 Z" fill="#5E6367"/>
  <path d="M41.99,89.45 C40.17,88.96 36.57,92.6 37.01,94.87 C37.23,96.03 37.88,97.32 41.4,98.6 C44.62,99.77 49.6,99.71 49.6,97.79 C49.6,95.3 45.28,95.53 44.18,93.32 C43.31,91.58 43.89,89.97 41.99,89.45 Z" fill="#B0B0AF"/>
  <path d="M33.98,103.69 C33.98,103.69 32.54,104.67 31.42,105.77 C30.01,107.16 29.48,108.11 29.48,108.11 C29.48,108.11 32.71,119.73 63.75,119.98 C94.14,120.23 99.86,107.65 99.86,107.65 C99.86,107.65 98.87,106.22 97.83,105.18 C96.79,104.14 96.1,103.61 96.1,103.61 C96.1,103.61 87.29,113.56 63.54,113.3 C40.9,113.07 33.98,103.69 33.98,103.69 Z" fill="#5E6367"/>
  <path d="M32.42,106.89 C31.59,107.82 31.62,109.75 34.07,111.36 C36.69,113.08 40.91,115.53 46.96,116.66 C53.12,117.81 59.54,117.46 59.14,115.4 C58.87,113.99 53.53,115.57 44.06,111.82 C38.5,109.62 36.78,108.41 35.65,107.61 C34.92,107.08 33.62,105.55 32.42,106.89 Z" fill="#B0B0AF"/>
  <path d="M39.59,96.28 C41.52,96.28 41.52,93.28 39.59,93.28 C37.66,93.28 37.66,96.28 39.59,96.28 L39.59,96.28 Z" fill="#B0B0AF"/>
</svg>
